X:1
T:Heavenly Fold, CMD
T:Heavenly Fold, CMD
T:William Fiske Sherwin, 1874
T:Public Domain Courtesy of the Cyber Hymnal™
C:William Fiske Sherwin, 1874
Z:Public Domain
Z:Courtesy of the Cyber Hymnal™
%%score ( 1 2 ) ( 3 4 )
L:1/8
Q:1/4=115
M:4/4
K:C
V:1 treble 
V:2 treble 
V:3 bass 
V:4 bass 
V:1
 C2 | [CD]2 [CE]2 [CF]2 [CE]2 | [B,E]3 [B,D] C2 [DE]2 | [Ec]2 [FB]2 [EA]2 [E^G]2 | [EA]6 [FB]2 | %5
 [Ec]2 [Fd]2 [Ge]2 [Ec]2 | [EG]3 [CE] [EG]2 [EA]2 | [DB]2 [DG]2 [DA]2 [D^F]2 | [DG]6 G2 | %9
 [FB]2 [FB]2 [FB]2 (AB) | [Ec]3 [EG] [EG]2 [Gc]2 | [FB]2 [FB]2 [FB]2 ([FA]B) | ([Ec]4 [Fd]2) G2 | %13
 [Ge]3 [Fd] [Ec]2 [DB]2 | [CA]2 [EG]2 [DF]2 [DA]2 | [EG]2 [CE]2 C2 [B,D]2 | C6 |] %17
V:2
 C2 | x8 | x4 C2 x2 | x8 | x8 | x8 | x8 | x8 | x6 G2 | x6 F2 | x8 | x8 | x6 G2 | x8 | x8 | %15
 x4 C2 x2 | C6 |] %17
V:3
 [C,E,]2 | [C,F,]2 [C,G,]2 [C,A,]2 [C,G,]2 | [G,,G,]3 [G,,F,] [A,,E,]2 [^G,,B,]2 | %3
 [A,,C]2 [D,C]2 [E,C]2 [E,B,]2 | [A,,C]6 [G,,D]2 | [C,C]2 [B,,G,]2 [C,G,]2 [C,G,]2 | %6
 [C,G,]3 [C,G,] [C,G,]2 [C,G,]2 | [D,G,]2 [D,B,]2 [D,C]2 [D,A,]2 | [G,B,]6 G,2 | %9
 [G,,D]2 [D,D]2 [B,,D]2 [G,,D]2 | [C,C]2 [G,C]2 [E,C]2 [C,E]2 | [G,D]2 [G,D]2 [^G,D]2 [G,D]2 | %12
 ([A,C]4 [G,B,]2) [G,B,]2 | C3 [G,B,] A,2 [E,^G,]2 | [F,A,]2 [^C,_B,]2 [D,A,]2 [_B,,G,]2 | %15
 [C,G,]2 [C,G,]2 [G,,E,]2 [G,,F,]2 | [C,E,]6 |] %17
V:4
 x2 | x8 | x8 | x8 | x8 | x8 | x8 | x8 | x6 G,2 | x8 | x8 | x8 | x8 | C3 A,2 x3 | x8 | x8 | x6 |] %17

